!!!!SEGMENT: pl-kk--kk-i-324--005_casali-giovanni-battista--in-hac-festiva-die-alleluia.krn
!!!id: 17xx:2136
!!!COM: Casali, Giovanni Battista
!!!COM-rism: pe30000607
!!!CDT: 1715-1792/07/06
!!!CNT: Italian
!!!OTL: In hac festiva die – Alleluia
!!!PDT:
!!!SMS-siglum: PL-Kk
!!!SMS-shelfmark: Kk.I.324
!!!NIFC-rismID: 1001146199
!!!URL-scan: http://repozytorium.nifc.pl/skany/pl-kk-nut--i-324
!!!ONB-nifc: UWAGA: części: 1. In hac festiva die (Recitativo), 2. Iam canorus (Allegro), 3. Tristitie ergo mortales (Recitativo), 4. Caelesti sacrate (Andante), 5. Alleluia (Allegro)
!!!SMS-variant:
!!!SMS-altvar:
**kern	**dynam	**kern	**text	**kern	**dynam	**kern	**dynam	**kern	**dynam
*part5	*part5	*part4	*part4	*part3	*part3	*part2	*part2	*part1	*part1
*	*	*	*	*	*	*group1	*	*group1	*
*staff5	*	*staff4	*staff4	*staff3	*	*staff2	*	*staff1	*
*I"Organo	*	*I"Baſso	*	*I"Viola	*	*I"Violino Secondo	*	*I"Violino Primo	*
*I'org	*	*I'B	*	*I'vla	*	*I'vl 2	*	*I'vl 1	*
*clefF4	*	*clefF4	*	*clefC3	*	*clefG2	*	*clefG2	*
*k[f#c#]	*	*k[f#c#]	*	*k[f#c#]	*	*k[f#c#]	*	*k[f#c#]	*
*M2/4	*	*M2/4	*	*M2/4	*	*M2/4	*	*M2/4	*
=1	=1	=1	=1	=1	=1	=1	=1	=1	=1
*	*	*	*	*all\right	*	*all\right	*	*	*
!	!	!LO:TX:b:B:t=Allegro	!	!LO:TX:a:B:t=All&colon;o	!	!LO:TX:a:B:t=All&colon;o	!	!LO:TX:a:B:t=All&colon;o	!
4D/	.	2r	.	4d\	.	4ff#/ 4a/ 4d/	.	4ff#/ 4a/ 4d/	.
4D/	.	.	.	4d\	.	4ff#/ 4a/ 4d/	.	4ff#/ 4a/ 4d/	.
=2	=2	=2	=2	=2	=2	=2	=2	=2	=2
8D/L	.	4r	.	8d\L	.	8ff#/ 8a/ 8d/	.	8ff#/ 8a/ 8d/	.
8D/	.	.	.	8d\	.	16d/LL	.	16d/LL	.
.	.	.	.	.	.	16e/JJ	.	16e/JJ	.
8D/	.	8r	.	8d\	.	8d/L	.	8d/L	.
8D/J	p	8D/	Al-	8d\J	.	8d/J	.	8d/J	.
=3	=3	=3	=3	=3	=3	=3	=3	=3	=3
*	*	*	*	*tremolo	*	*	*	*	*
*	*	*	*	*2\right	*	*	*	*	*
!	!	!	!	!	!LO:DY:rj:t=p	!	!LO:DY:rj	!	!LO:DY:rj
8D/L	.	4D/	-le-	8d\L	p	4d/	p	4d/	p
8D/	.	.	.	8d\	.	.	.	.	.
8D/	.	4F#\	-lu-	8d\	.	4d/	.	4f#/	.
8D/J	.	.	.	8d\J	.	.	.	.	.
=4	=4	=4	=4	=4	=4	=4	=4	=4	=4
!	!	!	!	!LO:TX:a:t=P:problem:złe wyświetlanie wartości rytmicznej tremolo	!	!	!	!	!
!	!	!	!	!LO:N:TREM:vis=2.	!	!	!	!	!
8D/L	.	4.A\	-ia-	12d\L	.	4.f#/	.	4.a/	.
.	.	.	.	12d\	.	.	.	.	.
8D/	.	.	.	.	.	.	.	.	.
.	.	.	.	12d\	.	.	.	.	.
8D/	.	.	.	12d\	.	.	.	.	.
.	.	.	.	12d\	.	.	.	.	.
8D/J	.	16G\LL	.	.	.	16g/LL	.	16g/LL	.
.	.	.	.	12d\J	.	.	.	.	.
.	.	16F#\JJ	.	.	.	16f#/JJ	.	16f#/JJ	.
=5	=5	=5	=5	=5	=5	=5	=5	=5	=5
8D/L	.	8G\L	.	8d\L	.	8g/L	.	8g/L	.
8D/	.	8A\	.	8d\	.	8f#/	.	8a/	.
8D/	.	8B\	.	8d\	.	8g/	.	8b\	.
8D/J	.	8c#\J	.	8d\J	.	8e/J	.	8cc#\J	.
!LO:LB:g=original	!	!LO:LB:g=original	!	!	!	!	!	!	!
=6	=6	=6	=6	=6	=6	=6	=6	=6	=6
8D/L	.	4d\|	.	8d\L	.	4g/'	.	4dd\|	.
8D/	.	.	.	8d\	.	.	.	.	.
8D/	.	8d\L	.	8d\	.	(8bb\L	.	(8ddd\L	.
8D/J	.	8B\J	.	8d\J	.	8gg\J)	.	8bb\J)	.
=7	=7	=7	=7	=7	=7	=7	=7	=7	=7
8D/L	.	4A\	.	8d\L	.	4ff#\	.	4aa\	.
8D/	.	.	.	8d\	.	.	.	.	.
8D/	.	8B\L	.	8d\	.	(8gg\L	.	(8bb\L	.
8D/J	.	8G\J	.	8d\J	.	8ee\J)	.	8gg\J)	.
=8	=8	=8	=8	=8	=8	=8	=8	=8	=8
8D/L	.	4F#\'	.	8d\L	.	4dd\	.	4ff#\|	.
8D/	.	.	.	8d\	.	.	.	.	.
8D/	.	8B\L	.	8d\	.	(8gg\L	.	(8bb\L	.
8D/J	.	8G\J	.	8d\J	.	8ee\J)	.	8gg\J)	.
=9	=9	=9	=9	=9	=9	=9	=9	=9	=9
8D/L	.	8F#\L	.	8d\L	.	8dd\L	.	(8ff#\L	.
8D/	.	8G\J	.	8d\	.	8ee\	.	8gg\	.
8D/	.	8F#\	-le-	8d\	.	8dd\	.	8ff#\	.
8D/J	.	8E\	-lu-	8d\J	.	8cc#\J	.	8ee\J)	.
*	*	*	*	*Xtremolo	*	*	*	*	*
=10	=10	=10	=10	=10	=10	=10	=10	=10	=10
8D/L	.	4F#\'	-ia	8d\L	.	4dd\	.	4ff#\|	.
8D/J	.	.	.	8d\J	.	.	.	.	.
!	!LO:DY:t=p&colon;	!	!	!	!LO:DY:t=po	!	!LO:DY:t=po	!	!LO:DY:t=po
8D/L	p	8d\L	Al-	8d\L	p	(8bb\L	p	(8ddd\L	p
!	!LO:DY:t=f	!	!	!	!	!	!LO:DY:t=f&colon;	!	!
8D/J	f	8B\J	.	8d\J	f	8gg\J)	f	8bb\J)	f
=11	=11	=11	=11	=11	=11	=11	=11	=11	=11
8D/L	.	4A\	.	8d\L	.	4ff#\	.	4aa\	.
8D/J	.	.	.	8d\J	.	.	.	.	.
!	!	!	!	!	!LO:DY:t=rinf&colon;	!	!LO:DY:t=rinf&colon;	!	!
8D/L	rfz	8B\L	.	8d\L	rfz	(8gg\L	rfz	(8bb\L	rfz
8D/J	.	8G\J	.	8d\J	.	8ee\J)	.	8gg\J)	.
!LO:LB:g=original	!	!LO:LB:g=original	!	!	!	!	!	!	!
=12	=12	=12	=12	=12	=12	=12	=12	=12	=12
8D\L	.	4F#\	.	8d\L	.	4dd\	.	4ff#\|	.
8D\J	.	.	.	8d\J	.	.	.	.	.
8D\L	.	8B\L	.	8d\L	.	(8gg\L	f	(8bb\L	f
8D\J	.	8G\J	.	8d\J	.	8ee\J)	.	8gg\J)	.
=13	=13	=13	=13	=13	=13	=13	=13	=13	=13
!	!	!	!	!	!LO:DY:t=f&colon;	!	!	!	!
8D\L	f	8F#\L	.	8d\L	f	8dd\L	.	(8ff#\L	.
8D\	.	8G\J	.	8d\	.	8ee\	.	8gg\	.
8D\	.	8F#\	-le-	8d\	.	8dd\	.	8ff#\	.
8D\J	.	8E\	-lu-	8d\J	.	8cc#\J	.	8ee\J)	.
=14	=14	=14	=14	=14	=14	=14	=14	=14	=14
*	*	*	*	*tremolo	*	*	*	*	*
8D\L	.	4D\	-ia	8d\L	.	4dd\	.	4dd\	.
8D\	.	.	.	8d\	.	.	.	.	.
8D\	.	4r	.	8d\	.	8dd\L	.	8ff#\L	.
8D\J	.	.	.	8d\J	.	8ff#\J	.	8aa\J	.
=15	=15	=15	=15	=15	=15	=15	=15	=15	=15
!	!	!	!	!	!LO:DY:t=p&colon;	!	!LO:DY:t=p&colon;	!	!
8D\L	p	8F#\L	Al-	8d\L	p	4dd\	p	8ff#\L	p
8D\	.	16E\L	.	8d\	.	.	.	16ee\L	.
.	.	16D\JJ	.	.	.	.	.	16dd\JJ	.
8D\	.	8F#\L	.	8d\	.	4dd\	.	8ff#\L	.
8D\J	.	8G#X\J	.	8d\J	.	.	.	8gg#X\J	.
!	!	!	!	!	!	!	!	!LO:LB:g=original	!
=16	=16	=16	=16	=16	=16	=16	=16	=16	=16
8C#/L	.	4A\|	.	8c#\L	.	4ee\	.	4aa\	.
8C#/	.	.	.	8c#\	.	.	.	.	.
8C#/	.	[4A\	.	8c#\	.	4ee\	.	[>4a/	.
8C#/J	.	.	.	8c#\J	.	.	.	.	.
*	*	*	*	*Xtremolo	*	*	*	*	*
!	!	!	!	!LO:LB:g=original	!	!LO:LB:g=original	!	!	!
=17	=17	=17	=17	=17	=17	=17	=17	=17	=17
8BB/L	.	8A\L]	.	8B/L	.	4dd\	.	8a/L]	.
8BB/J	.	16G#X\L	.	8B/J	.	.	.	16g#X/L	.
.	.	16A\JJ	.	.	.	.	.	16a/JJ	.
8GG#X/L	.	8B\L	.	8G#X/L	.	4dd\	.	8b/L	.
8GG#/J	.	8d\J	.	8G#/J	.	.	.	8b/J	.
!LO:PB:g=original	!	!LO:PB:g=original	!	!	!	!	!	!	!
=18	=18	=18	=18	=18	=18	=18	=18	=18	=18
*	*	*	*	*tremolo	*	*	*	*	*
8AA/L	.	8c#\L	.	8A/L	.	8cc#\L	.	8a\L	.
8AA/	.	8e\J	.	8A/	.	8ee\J	.	8ee\J	.
8AA/	.	4A\|	.	8A/	.	4a/|	.	4a/|	.
8AA/J	.	.	.	8A/J	.	.	.	.	.
=19	=19	=19	=19	=19	=19	=19	=19	=19	=19
8E\L	.	8G#X\L	.	8e\L	.	8g#X/L	.	8g#X/L	.
8E\	.	8B\J	.	8e\	.	8b/J	.	8b/J	.
!	!	!	!	!	!	!LO:TX:a:t=P:problem:| na górze i na dole	!	!	!
8E\	.	4E\|	.	8e\	.	4e/|	.	4e/|	.
8E\J	.	.	.	8e\J	.	.	.	.	.
=20	=20	=20	=20	=20	=20	=20	=20	=20	=20
8GG#X/L	.	8D\L	.	8G#X/L	.	8d/L	.	8d/L	.
8GG#/	.	8F#\J	.	8G#/	.	8f#/J	.	8f#/J	.
8GG#/	.	4BB/	.	8G#/	.	4B/	.	4B/	.
8GG#/J	.	.	.	8G#/J	.	.	.	.	.
=21	=21	=21	=21	=21	=21	=21	=21	=21	=21
8AA/L	.	8C#/L	.	8A/L	.	8c#/L	.	8c#/L	.
8AA/	.	8E/J	.	8A/	.	8e/J	.	8e/J	.
8AA/	.	(4AA/	.	8A/	.	4A/	.	4A/|	.
8AA/J	.	.	.	8A/J	.	.	.	.	.
=22	=22	=22	=22	=22	=22	=22	=22	=22	=22
!	!	!	!	!	!	!LO:TX:a:t=P:problem: w tt. 22-25 artykulacja dyskusyjna	!	!LO:TX:a:t=P:problem: w tt. 22-25 artykulacja dyskusyjna	!
8D\L	.	8F#\L)	.	8d\L	.	4d/|	.	4f#/|	.
8D\	.	16D\L	.	8d\	.	.	.	.	.
.	.	16E\JJ	.	.	.	.	.	.	.
8D\	.	8F#\L	.	8d\	.	4f#/|	.	4a/|	.
8D\J	.	8A\J	.	8d\J	.	.	.	.	.
=23	=23	=23	=23	=23	=23	=23	=23	=23	=23
8E\L	.	8G#X\L	.	8e\L	.	4e/|	.	4g#X/|	.
8E\	.	16E\L	.	8e\	.	.	.	.	.
.	.	16F#\JJ	.	.	.	.	.	.	.
8E\	.	8G#\L	.	8e\	.	4g#X/|	.	4b/|	.
8E\J	.	8B\J	.	8e\J	.	.	.	.	.
!LO:LB:g=original	!	!LO:LB:g=original	!	!	!	!	!	!	!
=24	=24	=24	=24	=24	=24	=24	=24	=24	=24
8F#\L	.	8A\L	.	8f#\L	.	4f#/|	.	4a/|	.
8F#\	.	16F#\L	.	8f#\	.	.	.	.	.
.	.	16G#X\JJ	.	.	.	.	.	.	.
8F#\	.	8A\L	.	8f#\	.	4a/|	.	4cc#/|	.
8F#\J	.	8c#\J	.	8f#\J	.	.	.	.	.
=25	=25	=25	=25	=25	=25	=25	=25	=25	=25
8G#X\L	.	8B\L	.	8g#X\L	.	4e/|	.	4b\|	.
8G#\	.	16G#X\L	.	8g#\	.	.	.	.	.
.	.	16A\JJ	.	.	.	.	.	.	.
8G#\	.	8B\L	.	8g#\	.	4b/|	.	4dd\|	.
8G#\J	.	8d\J	.	8g#\J	.	.	.	.	.
*	*	*	*	*Xtremolo	*	*	*	*	*
=26	=26	=26	=26	=26	=26	=26	=26	=26	=26
!LO:TX:t=P:problem:mixed beam	!	!LO:TX:t=P:problem:mixed beam	!	!LO:TX:t=P:problem:mixed beam	!	!	!	!	!
8A\L	.	8c#\L	.	8a\L	.	16cc#\LL	.	16cc#\LL	.
.	.	.	.	.	.	16aa\	.	16aa\	.
8B\	.	8d\	.	8b\	.	16dd\	.	16dd\	.
.	.	.	.	.	.	16aa\JJ	.	16aa\JJ	.
!	!LO:DY:t=po-	!	!	!	!LO:DY:t=po	!LO:TX:t=P:problem:mixed beam	!	!LO:TX:t=P:problem:mixed beam	!
8c#\	p	8e\	.	8cc#\	p	8ee\L	.	8ee\L	.
!	!	!	!	!	!LO:DY:t=f&colon;	!	!	!	!
8C#/J	f	8C#/J	.	8c#/J	f	8c#/J	.	8c#/J	.
=27	=27	=27	=27	=27	=27	=27	=27	=27	=27
!	!	!	!	!	!	!	!LO:DY:t=po	!	!LO:DY:t=po.
8D\L	.	4D\	-le-	8d\L	.	4d/	p	4d/	p
8D\	.	.	.	8d\	.	.	.	.	f
!	!	!	!	!	!	!	!LO:DY:t=f&colon;	!	!
8E\	.	4E\	-lu-	8e\	.	4e/	f	4e/	.
8E\J	.	.	.	8e\J	.	.	.	.	.
=28	=28	=28	=28	=28	=28	=28	=28	=28	=28
!LO:TX:t=P:problem:mixed beam	!	!	!	!LO:TX:t=P:problem:mixed beam	!	!	!	!	!
8A\L	.	8c#\L	-ia	8a\L	.	16cc#\LL	.	16cc#\LL	.
.	.	.	.	.	.	16aa\	.	16aa\	.
8B\	.	8d\	.	8b\	.	16dd\	.	16dd\	.
.	.	.	.	.	.	16aa\JJ	.	16aa\JJ	.
!	!	!	!	!	!LO:DY:t=f&colon;	!LO:TX:t=P:problem:mixed beam	!LO:DY:t=f&colon;	!LO:TX:t=P:problem:mixed beam	!
8c#\	.	8e\J	.	8cc#\	f	8ee\L	f	8ee\L	f
8C#/J	.	8C#/	Al-	8c#/J	.	8c#/J	.	8c#/J	.
=29	=29	=29	=29	=29	=29	=29	=29	=29	=29
4D\	.	4D\	-le-	4d\	.	4ff#/ 4a/ 4d/	.	4ff#/ 4a/ 4d/	.
4E\	.	4E\	-lu-	4e\	.	4gg#X/ 4b/ 4e/	.	4gg#X/ 4b/ 4e/	.
!LO:LB:g=original	!	!LO:LB:g=original	!	!	!	!	!	!	!LO:LB:g=original
=30	=30	=30	=30	=30	=30	=30	=30	=30	=30
*	*	*	*	*tremolo	*	*	*	*	*
8AA/L	.	4AA/	-ia.	8A/L	.	4aa/ 4cc#/ 4e/	.	4aa/ 4cc#/ 4e/	.
8AA/	.	.	.	8A/	.	.	.	.	.
8AA/	.	4r	.	8A/	.	(8ff#\L	.	(8aa\L	.
8AA/J	.	.	.	8A/J	.	8dd\J)	.	8ff#\J)	.
=31	=31	=31	=31	=31	=31	=31	=31	=31	=31
8AA/L	.	2r	.	8A/L	.	4cc#\	.	4ee\	.
8AA/	.	.	.	8A/	.	.	.	.	.
8AA/	.	.	.	8A/	.	(8dd\L	.	(8ff#\L	.
8AA/J	.	.	.	8A/J	.	8b\J)	.	8dd\J)	.
=32	=32	=32	=32	=32	=32	=32	=32	=32	=32
8AA/L	.	2r	.	8A/L	.	4a/	.	4cc#\	.
8AA/	.	.	.	8A/	.	.	.	.	.
8AA/	.	.	.	8A/	.	(8dd\L	.	(8ff#\L	.
8AA/J	.	.	.	8A/J	.	8b\J)	.	8dd\J)	.
=33	=33	=33	=33	=33	=33	=33	=33	=33	=33
8AA/L	.	2r	.	8A/L	.	8a\L	.	8cc#\L	.
8AA/	.	.	.	8A/	.	8b\	.	8dd\	.
8AA/	.	.	.	8A/	.	8a\	.	8cc#\	.
8AA/J	.	.	.	8A/J	.	8g#X\J	.	8b\J	.
!	!	!	!	!LO:LB:g=original	!	!	!	!	!
=34	=34	=34	=34	=34	=34	=34	=34	=34	=34
8AA/L	.	2r	.	8A/L	.	8a/L	.	8cc#\L	.
8AA/	.	.	.	8A/	.	16cc#\L	.	16aa\L	.
.	.	.	.	.	.	16b\JJ	.	16gg#X\JJ	.
8AA/	.	.	.	8A/	.	8cc#\L	.	8aa\L	.
8AA/J	.	.	.	8A/J	.	8cc#\J	.	8ee\J	.
!	!	!	!	!	!	!LO:LB:g=original	!	!	!
=35	=35	=35	=35	=35	=35	=35	=35	=35	=35
8D\L	.	2r	.	8d\L	.	8dd\L	.	8ff#\L	.
8D\	.	.	.	8d\	.	16ff#\L	.	16aa\L	.
.	.	.	.	.	.	16ee\JJ	.	16gg#X\JJ	.
8D\	.	.	.	8d\	.	8ff#\L	.	8aa\L	.
8D\J	.	.	.	8d\J	.	8b\J	.	8ee\J	.
=36	=36	=36	=36	=36	=36	=36	=36	=36	=36
8E\L	.	2r	.	8e\L	.	8a\L	.	8cc#\L	.
8E\	.	.	.	8e\	.	8cc#\	.	8aa\	.
8E\	.	.	.	8e\	.	8a\	.	8cc#\	.
8E\J	.	.	.	8e\J	.	8cc#\J	.	8aa\J	.
!LO:LB:g=original	!	!LO:LB:g=original	!	!	!	!	!	!	!
=37	=37	=37	=37	=37	=37	=37	=37	=37	=37
8E\L	.	2r	.	8e\L	.	8g#X/L	.	8b\L	.
8E\	.	.	.	8e\	.	8b\	.	8gg#X\	.
8E\	.	.	.	8e\	.	8g#/	.	8b\	.
8E\J	.	.	.	8e\J	.	8b\J	.	8gg#\J	.
*	*	*	*	*Xtremolo	*	*	*	*	*
=38	=38	=38	=38	=38	=38	=38	=38	=38	=38
4AA/	.	2r	.	4A/	.	4aa/ 4cc#/ 4e/	.	4aa/ 4cc#/ 4e/	.
4AA/	.	.	.	4A/	.	4aa/ 4cc#/ 4e/	.	4aa/ 4cc#/ 4e/	.
=39	=39	=39	=39	=39	=39	=39	=39	=39	=39
8AA/L	.	4r	.	8A/L	.	8aa/ 8cc#/ 8e/	.	8aa/ 8cc#/ 8e/	.
8AA/	.	.	.	8A/	.	16A/LL	.	16A/LL	.
.	.	.	.	.	.	16B/JJ	.	16B/JJ	.
8AA/	.	8r	.	8A/	.	8A/L	.	8A/L	.
8AA/J	.	8AA/	Al-	8A/J	.	8A/J	.	8A/J	.
=40	=40	=40	=40	=40	=40	=40	=40	=40	=40
*	*	*	*	*tremolo	*	*	*	*	*
!	!LO:DY:rj	!	!	!	!	!	!LO:DY:rj:t=p&colon;	!	!LO:DY:rj
8AA/L	p	4AA/	-le-	8A/L	p	4A/	p	4A/	p
8AA/	.	.	.	8A/	.	.	.	.	.
8AA/	.	4C#/	-lu-	8A/	.	4A/	.	4c#/	.
8AA/J	.	.	.	8A/J	.	.	.	.	.
=41	=41	=41	=41	=41	=41	=41	=41	=41	=41
8AA/L	.	4.E/	-ia	8A/L	.	4.c#/	.	4.e/	.
8AA/	.	.	.	8A/	.	.	.	.	.
8AA/	.	.	.	8A/	.	.	.	.	.
8AA/J	.	16D\LL	.	8A/J	.	16d/LL	.	16d/LL	.
.	.	16C#/JJ	.	.	.	16c#/JJ	.	16c#/JJ	.
=42	=42	=42	=42	=42	=42	=42	=42	=42	=42
8AA/L	.	8D\L	.	8A/L	.	8d/L	.	8d/L	.
8AA/	.	8E\	.	8A/	.	8c#/	.	8e/	.
8AA/	.	8F#\	.	8A/	.	8d/	.	8f#/	.
8AA/J	.	8G#X\J	.	8A/J	.	8B/J	.	8g#X/J	.
!	!	!	!	!	!	!	!	!LO:LB:g=original	!
=43	=43	=43	=43	=43	=43	=43	=43	=43	=43
8AA/L	.	4A\	.	8A/L	.	4c#/	.	4a/	.
8AA/	.	.	.	8A/	.	.	.	.	.
8AA/	.	8A\L	Al-	8A/	.	(8ff#\L	.	(8aa\L	.
8AA/J	.	8F#\J	.	8A/J	.	8dd\J)	.	8ff#\J)	.
!LO:LB:g=original	!	!LO:LB:g=original	!	!	!	!	!	!	!
=44	=44	=44	=44	=44	=44	=44	=44	=44	=44
8AA/L	.	4E\	.	8A/L	.	4cc#\	.	4ee\	.
8AA/	.	.	.	8A/	.	.	.	.	.
8AA/	.	8F#\L	.	8A/	.	(8dd\L	.	(8ff#\L	.
8AA/J	.	8D\J	.	8A/J	.	8b\J)	.	8dd\J)	.
=45	=45	=45	=45	=45	=45	=45	=45	=45	=45
8AA/L	.	4C#/	.	8A/L	.	4a/	.	4cc#\	.
8AA/	.	.	.	8A/	.	.	.	.	.
8AA/	.	8F#\L	.	8A/	.	(8dd\L	.	(8ff#\L	.
8AA/J	.	8D\J	.	8A/J	.	8b\J)	.	8dd\J)	.
=46	=46	=46	=46	=46	=46	=46	=46	=46	=46
8AA/L	.	8C#/L	.	8A/L	.	8a/L	.	8cc#\L	.
8AA/	.	8D\J	.	8A/	.	8b\	.	8dd\	.
8AA/	.	8C#/	-le-	8A/	.	8a/	.	8cc#\	.
8AA/J	.	8BB/	-lu-	8A/J	.	8g#X/J	.	8b\J	.
*	*	*	*	*Xtremolo	*	*	*	*	*
=47	=47	=47	=47	=47	=47	=47	=47	=47	=47
4AA/	.	4AA/	-ia	4A/	.	8a/L	.	8a/L	.
.	.	.	.	.	.	8A/J	.	8A/J	.
4r	.	4r	.	4r	.	4A/	.	4A/|	.
=48	=48	=48	=48	=48	=48	=48	=48	=48	=48
*	*	*	*	*	*	*2\right	*	*	*
(4Cn/	.	4A\	Al-	(4cn/	.	2ee\	.	4aa\	.
4AA/)	.	4cn\	.	4A/)	.	.	.	4cccn\	.
=49	=49	=49	=49	=49	=49	=49	=49	=49	=49
8BB/L	.	4.D#X\	.	8B/L	.	8dd#X\L	.	8ff#\L	.
8BB/	.	.	.	8B/	.	8dd#\	.	8ff#\	.
8BB/	.	.	.	8B/	.	8dd#\	.	8ff#\	.
8BB/J	.	8cn\	.	8B/J	.	8aa\J	.	8cccn\J	.
!LO:PB:g=original	!	!LO:PB:g=original	!	!	!	!	!	!	!
=50	=50	=50	=50	=50	=50	=50	=50	=50	=50
*	*	*	*	*tremolo	*	*	*	*	*
8BB/L	.	8B\L	.	8B/L	.	8gg\L	.	8bb\L	.
8BB/	.	8A\	.	8B/	.	8ff#\	.	8aa\	.
8BB/	.	8G\	.	8B/	.	8ee\	.	8gg\	.
8BB/J	.	8F#\J	.	8B/J	.	8dd#X\J	.	8ff#\J	.
*	*	*	*	*Xtremolo	*	*	*	*	*
!	!	!	!	!	!	!LO:LB:g=original	!	!	!
=51	=51	=51	=51	=51	=51	=51	=51	=51	=51
4E\	.	4G\	.	4e\	.	4ee\	.	4gg\	.
!	!	!	!	!	!	!	!LO:DY:t=po	!	!LO:DY:t=po
8r	.	[4B\	.	8r	.	[4gg\	p	[4bb\	p
!	!	!	!	!	!	!	!LO:DY:t=f&colon;	!	!
8E\	.	.	.	8e\	.	.	f	.	f
=52	=52	=52	=52	=52	=52	=52	=52	=52	=52
*	*	*	*	*tremolo	*	*	*	*	*
8BB/L	.	8B\L]	.	8B/L	.	8gg\L]	.	8bb\L]	.
!	!	!	!	!	!	!	!LO:DY:t=p&colon;	!	!
8BB/	.	16A\L	.	8B/	.	16ff#\L	p	16aa\'L	p
.	.	16G\JJ	.	.	.	16ee\JJ	.	16gg\'JJ	.
8BB/	.	8A\L	.	8B/	.	8ff#\L	.	8aa\L	.
8BB/J	.	8F#\J	.	8B/J	.	8dd#X\J	.	8ff#\J	.
*	*	*	*	*Xtremolo	*	*	*	*	*
!	!	!	!	!LO:LB:g=original	!	!	!	!	!
=53	=53	=53	=53	=53	=53	=53	=53	=53	=53
8E\L	.	4G\	.	8e\L	.	4ee\	.	4gg\	.
8E\	.	.	.	8e\	.	.	.	.	.
8A\	.	4cn\	.	8a\	.	[4ee\	.	8cccn\L	.
8A\J	.	.	.	8a\J	.	.	.	8aa\J	.
=54	=54	=54	=54	=54	=54	=54	=54	=54	=54
!LO:TX:t=P:problem:mixed beam	!	!	!	!LO:TX:t=P:problem:mixed beam	!	!	!	!	!
8B\L	.	4B\	-le-	8b\L	.	4ee\]	.	4gg\	.
8B\	.	.	.	8b\	.	.	.	.	.
8BB/	.	4BB/	-lu-	8B/	.	4dd#X\	.	4ff#\	.
8BB/J	.	.	.	8B/J	.	.	.	.	.
=55	=55	=55	=55	=55	=55	=55	=55	=55	=55
4E\	.	4E\	-ia	4e\	.	8ee\L	.	8gg\L	.
.	.	.	.	.	.	16gg\L	.	16bb\L	.
.	.	.	.	.	.	16ff#\JJ	.	16aa\JJ	.
4r	.	4r	.	4r	.	8ee\L	.	8gg\L	.
.	.	.	.	.	.	8dd#X\J	.	8ff#\J	.
!LO:LB:g=original	!	!LO:LB:g=original	!	!	!	!	!	!	!
=56	=56	=56	=56	=56	=56	=56	=56	=56	=56
4E\	.	4G\	Al-	4e\	.	4ee\	.	4gg\	.
4r	.	4B\	.	4r	.	4gg\	.	4bb\	.
!	!	!	!	!	!	!	!	!LO:LB:g=original	!
=57	=57	=57	=57	=57	=57	=57	=57	=57	=57
*	*	*	*	*tremolo	*	*	*	*	*
!	!	!	!	!LO:TX:a:t=P:problem:złe wyświetlanie wartości rytmicznej tremolo	!	!	!	!	!
!	!	!	!	!LO:N:TREM:vis=2.	!	!	!	!	!
8AA/L	.	4.C#/	.	12A/L	.	8cc#\L	.	8ee\L	.
.	.	.	.	12A/	.	.	.	.	.
8AA/	.	.	.	.	.	8cc#\	.	8ee\	.
.	.	.	.	12A/	.	.	.	.	.
8AA/	.	.	.	12A/	.	8cc#\	.	8ee\	.
.	.	.	.	12A/	.	.	.	.	.
8AA/J	.	8B\	.	.	.	8gg\J	.	8bb\J	.
.	.	.	.	12A/J	.	.	.	.	.
=58	=58	=58	=58	=58	=58	=58	=58	=58	=58
!	!	!	!	!LO:TX:a:t=P:problem:złe wyświetlanie wartości rytmicznej tremolo	!	!	!	!	!
!	!	!	!	!LO:N:TREM:vis=2.	!	!	!	!	!
8AA/L	.	8A\L	.	12A/L	.	8ff#\L	.	8aa\L	.
.	.	.	.	12A/	.	.	.	.	.
8AA/	.	8G\	.	.	.	8ee\	.	8gg\	.
.	.	.	.	12A/	.	.	.	.	.
8AA/	.	8F#\	.	12A/	.	8dd\	.	8ff#\	.
.	.	.	.	12A/	.	.	.	.	.
8AA/J	.	8E\J	.	.	.	8cc#\J	.	8ee\J	.
.	.	.	.	12A/J	.	.	.	.	.
*	*	*	*	*Xtremolo	*	*	*	*	*
=59	=59	=59	=59	=59	=59	=59	=59	=59	=59
4D/	.	4F#\	.	4d\	.	4dd\	.	4ff#\	.
!	!	!	!	!	!	!	!LO:DY:t=po	!	!LO:DY:t=po
8r	.	[4A\	.	8r	.	[4ff#\	p	[4aa\	p
!	!	!	!	!	!	!	!LO:DY:t=f&colon;	!	!
8D/	.	.	.	8d\	.	.	f	.	f
=60	=60	=60	=60	=60	=60	=60	=60	=60	=60
8AA/L	.	8A\L]	.	8A/L	.	8ff#\L]	.	8aa\L]	.
!	!	!	!	!	!	!	!LO:DY:t=p&colon;	!	!
8AA/	.	16G\L	.	8A/	.	16ee\L	p	16gg\L	p
.	.	16F#\JJ	.	.	.	16dd\JJ	.	16ff#\JJ	.
8AA/	.	8G\L	.	8A/	.	8ee\L	.	8gg\L	.
8AA/J	.	8E\J	.	8A/J	.	8cc#\J	.	8ee\J	.
!LO:LB:g=original	!	!LO:LB:g=original	!	!	!	!	!	!	!
=61	=61	=61	=61	=61	=61	=61	=61	=61	=61
8D\L	.	4F#\	.	8d\L	.	4dd\	.	4ff#\	.
8D\	.	.	.	8d\	.	.	.	.	.
8G\	.	4B\	.	8g\	.	[4dd\	.	8bb\L	.
8G\J	.	.	.	8g\J	.	.	.	8gg\J	.
=62	=62	=62	=62	=62	=62	=62	=62	=62	=62
!LO:TX:t=P:problem:mixed beam	!	!	!	!LO:TX:t=P:problem:mixed beam	!	!	!	!	!
8A\L	.	4A\	-le-	8a\L	.	4dd\]	.	4ff#\	.
8A\	.	.	.	8a\	.	.	.	.	.
8AA/	.	4AA/	-lu-	8A/	.	4cc#\	.	4ee\	.
8AA/J	.	.	.	8A/J	.	.	.	.	.
=63	=63	=63	=63	=63	=63	=63	=63	=63	=63
!	!	!	!	!	!LO:DY:rj:t=f&colon;	!	!LO:DY:t=f&colon;	!	!
8D/L	.	4D\	-ia	8d\L	f	8dd\L	f	8dd\L	f
8D/	.	.	.	8d\	.	8a/	.	8a/	.
8D/	.	4r	.	8d\	.	8f#/	.	8f#/	.
8D/J	.	.	.	8d\J	.	8d/J	.	8d/J	.
=64	=64	=64	=64	=64	=64	=64	=64	=64	=64
8FF#/L	.	4r	.	8F#/L	.	4A/	.	4A/	.
8FF#/J	.	.	.	8F#/J	.	.	.	.	.
!	!LO:DY:rj	!	!	!	!LO:DY:t=p&colon;	!	!	!	!
8FF#/L	p	4A\	Al-	8F#/L	p	4a/	.	4a/	.
8FF#/J	.	.	.	8F#/J	.	.	.	.	p
=65	=65	=65	=65	=65	=65	=65	=65	=65	=65
*	*	*	*	*tremolo	*	*	*	*	*
!	!	!	!	!	!	!	!LO:DY:rj:t=p&colon;	!	!
8GG/L	.	4BB/	.	8G/L	.	4B/	p	4B/	.
8GG/	.	.	.	8G/	.	.	.	.	.
8GG/	.	4B\	.	8G/	.	4b\	.	4b\	.
8GG/J	.	.	.	8G/J	.	.	.	.	.
!LO:LB:g=original	!	!LO:LB:g=original	!	!	!	!	!	!	!
=66	=66	=66	=66	=66	=66	=66	=66	=66	=66
8AA/L	.	4C#/	.	8G/L	.	4c#/	.	4c#/	.
8AA/	.	.	.	8G/	.	.	.	.	.
8AA/	.	4c#\	.	8G/	.	4cc#\	.	4cc#\	.
8AA/J	.	.	.	8G/J	.	.	.	.	.
!	!	!	!	!LO:LB:g=original	!	!LO:LB:g=original	!	!	!
=67	=67	=67	=67	=67	=67	=67	=67	=67	=67
8BB/L	.	4D\	.	8B/L	.	4d/	.	4d/	.
8BB/	.	.	.	8B/	.	.	.	.	.
8BB/	.	4d\	.	8B/	.	4dd\	.	4dd\	.
8BB/J	.	.	.	8B/J	.	.	.	.	.
=68	=68	=68	=68	=68	=68	=68	=68	=68	=68
8C#/L	.	4E\	.	8c#/L	.	4e/	.	4e/	.
8C#/	.	.	.	8c#/	.	.	.	.	.
8C#/	.	4G\	.	8c#/	.	4ee\	.	4gg\	.
8C#/J	.	.	.	8c#/J	.	.	.	.	.
=69	=69	=69	=69	=69	=69	=69	=69	=69	=69
8D/L	.	8F#\L	.	8d\L	.	8dd\L	.	8ff#\L	.
8D/	.	8G\	.	8d\	.	8ee\	.	8gg\	.
8D/	.	8A\	.	8d\	.	8ff#\	.	8aa\	.
8D/J	.	8B\J	.	8d\J	.	8gg\J	.	8bb\J	.
=70	=70	=70	=70	=70	=70	=70	=70	=70	=70
8D/L	.	8A\L	.	8d\L	.	8ff#\L	.	8aa\L	.
8D/	.	8G\	.	8d\	.	8ee\	.	8gg\	.
8D/	.	8F#\	.	8d\	.	8dd\	.	8ff#\	.
8D/J	.	8E\J	.	8d\J	.	8cc#\J	.	8ee\J	.
!LO:LB:g=original	!	!LO:LB:g=original	!	!	!	!	!	!	!
=71	=71	=71	=71	=71	=71	=71	=71	=71	=71
8D\L	.	8F#\L	.	8d\L	.	8dd\L	.	8ff#\L	.
8D\	.	8G\	.	8d\	.	8ee\	.	8gg\	.
8D\	.	8A\	.	8d\	.	8ff#\	.	8aa\	.
8D\J	.	8B\J	.	8d\J	.	8gg\J	.	8bb\J	.
!	!	!	!	!	!	!	!	!LO:LB:g=original	!
=72	=72	=72	=72	=72	=72	=72	=72	=72	=72
8D\L	.	8A\L	.	8d\L	.	8ff#\L	.	8aa\L	.
8D\	.	8G\	.	8d\	.	8ee\	.	8gg\	.
8D\	.	8F#\	.	8d\	.	8dd\	.	8ff#\	.
8D\J	.	8E\J	.	8d\J	.	8cc#\J	.	8ee\J	.
*	*	*	*	*Xtremolo	*	*	*	*	*
=73	=73	=73	=73	=73	=73	=73	=73	=73	=73
8D\L	.	4F#\	.	8d\L	.	4dd\	.	4ff#\	.
8D\J	.	.	.	8d\J	.	.	.	.	.
!	!	!	!	!	!	!	!LO:DY:t=po	!	!LO:DY:t=po.
8G\L	.	8B\L	.	8g\L	.	[4dd\	p	8bb\L	p
!	!	!	!	!	!	!	!LO:DY:t=f&colon;	!	!
8G\J	.	8G\J	.	8g\J	.	.	f	8gg\J	f
=74	=74	=74	=74	=74	=74	=74	=74	=74	=74
!LO:TX:t=P:problem:mixed beam	!	!	!	!LO:TX:t=P:problem:mixed beam	!	!	!	!	!
8A\L	.	4F#\	-le-	8a\L	.	4dd\]	.	4ff#\	.
8A\	.	.	.	8a\	.	.	.	.	.
8AA/	.	4E\	-lu-	8A/	.	4cc#\	.	4ee\	.
8AA/J	.	.	.	8A/J	.	.	.	.	.
=75	=75	=75	=75	=75	=75	=75	=75	=75	=75
*	*	*	*	*tremolo	*	*	*	*	*
!	!	!	!	!	!LO:DY:t=f&colon;	!	!	!	!
8D\L	.	4D\	-ia	8d\L	f	4dd\	.	4dd\	.
8D\	.	.	.	8d\	.	.	.	.	f
!	!	!	!	!	!	!	!LO:DY:t=f&colon;	!	!
8D\	.	4r	.	8d\	.	(8bb\L	f	(8ddd\L	.
8D\J	.	.	.	8d\J	.	8gg\J)	.	8bb\J)	.
!LO:PB:g=original	!	!LO:PB:g=original	!	!	!	!	!	!	!
=76	=76	=76	=76	=76	=76	=76	=76	=76	=76
8D/L	.	2r	.	8d\L	.	4ff#\	.	4aa\	.
8D/	.	.	.	8d\	.	.	.	.	.
8D/	.	.	.	8d\	.	(8gg\L	.	(8bb\L	p
8D/J	.	.	.	8d\J	.	8ee\J)	.	8gg\J)	.
=77	=77	=77	=77	=77	=77	=77	=77	=77	=77
8D/L	.	4r	.	8d\L	.	4dd\	.	4ff#\	.
8D/	.	.	.	8d\	.	.	.	.	.
!	!	!	!	!	!	!	!LO:DY:t=p&colon;	!	!
8D/	p	8d\L	Al-	8d\	.	(8dd\L	p	(8bb\L	.
8D/J	.	8B\J	.	8d\J	.	8b\J)	.	8gg\J)	.
=78	=78	=78	=78	=78	=78	=78	=78	=78	=78
!	!	!	!	!	!LO:DY:rj:t=p&colon;	!	!	!	!
8D/L	.	4A\	.	8d\L	p	4a/	.	4ff#\	.
8D/	.	.	.	8d\	.	.	.	.	.
8D/	.	8B\L	.	8d\	.	(8b/L	.	(8gg\L	.
8D/J	.	8G\J	.	8d\J	.	8g/J)	.	8ee\J)	.
=79	=79	=79	=79	=79	=79	=79	=79	=79	=79
8D/L	.	4F#\|	.	8d\L	.	4f#/	.	4dd\	.
8D/	.	.	.	8d\	.	.	.	.	.
8D/	.	8B\L	.	8d\	.	(8gg\L	.	(8bb\L	.
8D/J	.	8G\J	.	8d\J	.	8ee\J)	.	8gg\J)	.
=80	=80	=80	=80	=80	=80	=80	=80	=80	=80
8D/L	.	8F#\L	.	8d\L	.	8dd\L	.	8ff#\L	.
8D/	.	8G\J	.	8d\	.	8ee\	.	8gg\	.
8D/	.	8F#\	-le-	8d\	.	8dd\	.	8ff#\	.
8D/J	.	8E\	-lu-	8d\J	.	8cc#\J	.	8ee\J	.
*	*	*	*	*Xtremolo	*	*	*	*	*
!LO:LB:g=original	!	!LO:LB:g=original	!	!	!	!	!	!	!
=81	=81	=81	=81	=81	=81	=81	=81	=81	=81
8D\L	.	4D\	-ia	8d\L	.	4dd\	.	4dd\	.
8D\J	.	.	.	8d\J	.	.	.	.	.
!	!LO:DY:rj:t=f&colon;	!	!	!	!LO:DY:t=f&colon;	!	!LO:DY:t=f&colon;	!	!
8D\L	f	4r	.	8d\L	f	8bb\L	f	(8ddd\L	f
8D\J	.	.	.	8d\J	.	8gg\J	.	8bb\J)	.
!	!	!	!	!LO:LB:g=original	!	!LO:LB:g=original	!	!	!
=82	=82	=82	=82	=82	=82	=82	=82	=82	=82
*	*	*	*	*tremolo	*	*	*	*	*
8D\L	.	2r	.	8d\L	.	4ff#\	.	4aa\	.
8D\	.	.	.	8d\	.	.	.	.	.
8D\	.	.	.	8d\	.	(8gg\L	.	(8bb\L	.
8D\J	.	.	.	8d\J	.	8ee\J)	.	8gg\J)	.
*	*	*	*	*Xtremolo	*	*	*	*	*
=83	=83	=83	=83	=83	=83	=83	=83	=83	=83
8D\L	.	4r	.	8d\L	.	4dd\|	.	4ff#\|	.
8D\J	.	.	.	8d\J	.	.	.	.	.
!	!LO:DY:rj	!	!	!	!LO:DY:t=p&colon;	!	!LO:DY:t=p&colon;	!	!
8D\L	p	8d\L	Al-	8d\L	p	(8bb\L	p	(8ddd\L	p
8D\J	.	8B\J	.	8d\J	.	8gg\J)	.	8bb\J)	.
=84	=84	=84	=84	=84	=84	=84	=84	=84	=84
*	*	*	*	*tremolo	*	*	*	*	*
8D\L	.	4A\	.	8d\L	.	4ff#\	.	4aa\	.
8D\J	.	.	.	8d\	.	.	.	.	.
!	!	!	!	!	!	!	!LO:DY:t=p&colon;	!	!
8D\L	.	8B\L	.	8d\	.	(8gg\L	p	(8bb\L	.
8D\J	.	8G\J	.	8d\J	.	8ee\J)	.	8gg\J)	.
!LO:LB:g=original	!	!LO:LB:g=original	!	!	!	!	!	!	!
=85	=85	=85	=85	=85	=85	=85	=85	=85	=85
8D\L	.	4F#\|	.	8d\L	.	4dd\	.	4ff#\	.
8D\J	.	.	.	8d\	.	.	.	.	.
8D\L	.	8B\L	.	8d\	.	(8gg\L	.	(8bb\L	.
8D\J	.	8G\J	.	8d\J	.	8ee\J)	.	8gg\J)	.
!	!	!	!	!	!	!	!	!LO:LB:g=original	!
=86	=86	=86	=86	=86	=86	=86	=86	=86	=86
8D\L	.	8F#\L	.	8d\L	.	8dd\L	.	8ff#\L	.
8D\J	.	8G\J	.	8d\	.	8ee\	.	8gg\	.
8D\L	.	8F#\	-le-	8d\	.	8dd\	.	8ff#\	.
8D\J	.	8E\	-lu-	8d\J	.	8cc#\J	.	8ee\J	.
=87	=87	=87	=87	=87	=87	=87	=87	=87	=87
8D\L	.	4D\	-ia	8d\L	.	16dd\LL	.	16dd\LL	.
.	.	.	.	.	.	16a\	.	16a\	.
8D\J	.	.	.	8d\	.	16dd\	.	16dd\	.
.	.	.	.	.	.	16a\JJ	.	16a\JJ	.
8D\L	.	8r	.	8d\	.	16dd\LL	.	16dd\LL	.
.	.	.	.	.	.	16a\	.	16a\	.
8D\J	.	8D\	Al-	8d\J	.	16dd\	.	16dd\	.
.	.	.	.	.	.	16a\JJ	.	16a\JJ	.
=88	=88	=88	=88	=88	=88	=88	=88	=88	=88
8D\L	.	4D\	-le-	8d\L	.	16dd\LL	.	16ff#\LL	.
.	.	.	.	.	.	16a\	.	16a\	.
8D\J	.	.	.	8d\	.	16dd\	.	16ff#\	.
.	.	.	.	.	.	16a\JJ	.	16a\JJ	.
8D\L	.	4F#\	-lu-	8d\	.	16dd\LL	.	16ff#\LL	.
.	.	.	.	.	.	16a\	.	16a\	.
8D\J	.	.	.	8d\J	.	16dd\	.	16ff#\	.
.	.	.	.	.	.	16a\JJ	.	16a\JJ	.
!LO:LB:g=original	!	!LO:LB:g=original	!	!	!	!	!	!	!
=89	=89	=89	=89	=89	=89	=89	=89	=89	=89
!	!LO:DY:rj:t=po.	!	!	!	!LO:DY:t=po	!	!	!LO:TX:t=P:problem:mixed beam	!LO:DY:t=po
8D\L	p	4A\	-ia	8d\L	p	16ff#\LL	.	16aa\LL	p
!	!LO:DY:rj	!	!	!	!	!	!LO:DY:t=po	!	!
.	f	.	.	.	.	16a\	p	16a/	f
!	!	!	!	!	!LO:DY:t=f&colon;	!	!LO:DY:t=f&colon;	!	!
8D\J	.	.	.	8d\	f	16ff#\	f	16aa\	.
.	.	.	.	.	.	16a\JJ	.	16a/JJ	.
!	!	!	!	!	!	!	!	!LO:TX:t=P:problem:mixed beam	!
8D\L	.	8r	.	8d\	.	16ff#\LL	.	16aa\LL	.
.	.	.	.	.	.	16a\	.	16a/	.
8D\J	.	8F#\	Al-	8d\J	.	16ff#\	.	16aa\	.
.	.	.	.	.	.	16a\JJ	.	16a/JJ	.
=90	=90	=90	=90	=90	=90	=90	=90	=90	=90
8D\L	.	4F#\	-le-	8d\L	.	16dd\LL	.	16ff#\LL	.
.	.	.	.	.	.	16a\	.	16a\	.
8D\J	.	.	.	8d\	.	16dd\	.	16ff#\	.
.	.	.	.	.	.	16a\JJ	.	16a\JJ	.
!	!	!	!	!	!	!	!	!LO:TX:t=P:problem:mixed beam	!
8D\L	.	4A\	-lu-	8d\	.	16ff#\LL	.	16aa\LL	.
.	.	.	.	.	.	16a\	.	16a/	.
8D\J	.	.	.	8d\J	.	16ff#\	.	16aa\	.
.	.	.	.	.	.	16a\JJ	.	16a/JJ	.
*	*	*	*	*Xtremolo	*	*	*	*	*
=91	=91	=91	=91	=91	=91	=91	=91	=91	=91
4D\	.	4d\|	-ia	4d\	.	4ff#/ 4a/ 4d/	.	4ddd/ 4ff#/ 4a/	.
!	!	!	!	!	!LO:DY:t=rinf&colon;	!	!LO:DY:t=rinf&colon;	!	!
4d\	rfz	4d\|	Al-	4dd\	rfz	4ff#/ 4a/ 4d/	rfz	4ff#/ 4a/ 4d/	rfz
=92	=92	=92	=92	=92	=92	=92	=92	=92	=92
*	*	*	*	*	*	*^	*	*^	*
4G\	.	4G\	-le-	4g\	.	4gg/ 4b/ 4d/	4ryy	.	4gg/ 4b/ 4d/	4ryy	.
4A\	.	4A\	-lu-	4a\	.	4ee/ 4cc#/	4a\	.	4ee/ 4cc#/	4a\	.
*	*	*	*	*	*	*v	*v	*	*	*	*
*	*	*	*	*	*	*	*	*v	*v	*
!LO:LB:g=original	!	!LO:LB:g=original	!	!	!	!LO:LB:g=original	!	!	!
=93	=93	=93	=93	=93	=93	=93	=93	=93	=93
4F#\	.	4F#\|	-ia	4f#\	.	4aa/ 4a/ 4d/	.	4aa/ 4a/ 4d/	.
!	!	!	!	!	!	!	!LO:DY:t=f&colon;	!	!
.	.	.	.	.	.	.	f	.	f
!	!	!	!	!	!LO:DY:t=f&colon;	!	!	!	!
4d\	.	4d\	Al-	4dd\	f	4ff#/ 4a/ 4d/	.	4ff#/ 4a/ 4d/	.
=94	=94	=94	=94	=94	=94	=94	=94	=94	=94
*	*	*	*	*	*	*^	*	*^	*
4G\	.	4G\	-le-	4g\	.	4gg/ 4b/ 4d/	4ryy	.	4gg/ 4b/ 4d/	4ryy	.
4A\	.	4A\	-lu-	4a\	.	4ee/ 4cc#/	4a\	.	4ee/ 4cc#/	4a\	.
*	*	*	*	*	*	*v	*v	*	*	*	*
*	*	*	*	*	*	*	*	*v	*v	*
=95	=95	=95	=95	=95	=95	=95	=95	=95	=95
8D\L	.	4D\	-ia.	8d\L	.	8dd/ 8d/	.	8ff#/ 8a/ 8d/	.
8D\	.	.	.	8d\	.	16ff#\LL	.	16aa\LL	.
.	.	.	.	.	.	16ff#\JJ	.	16aa\JJ	.
8D\	.	4r	.	8d\	.	8dd/ 8d/	.	8ff#/ 8a/ 8d/	.
8D\J	.	.	.	8d\J	.	16ff#\LL	.	16aa\LL	.
.	.	.	.	.	.	16ff#\JJ	.	16aa\JJ	.
!	!	!	!	!LO:LB:g=original	!	!	!	!LO:LB:g=original	!
=96	=96	=96	=96	=96	=96	=96	=96	=96	=96
*	*	*	*	*	*	*	*	*^	*
8D\L	.	2r	.	8d\L	.	8dd/L 8d/	.	8ff#/L	2a/ 2d/	.
8D\J	.	.	.	8d\	.	8ff#/ 8a/ 8d/	.	8ff#/	.	.
8D\L	.	.	.	8d\	.	8ff#/ 8a/ 8d/	.	8ff#/	.	.
8D\J	.	.	.	8d\J	.	8ff#/J 8a/ 8d/	.	8ff#/J	.	.
*	*	*	*	*	*	*	*	*v	*v	*
!LO:PB:g=original	!	!LO:PB:g=original	!	!	!	!	!	!	!
=97	=97	=97	=97	=97	=97	=97	=97	=97	=97
!LO:TX:a:t=P:problem:brak nastepnej strony	!	!LO:TX:a:t=P:problem:brak nastepnej strony	!	!	!	!	!	!	!
2ryy	.	2ryy	.	4d\	.	4ff#/ 4a/ 4d/	.	4ff#/ 4a/ 4d/	.
.	.	.	.	4d\	.	4ff#/ 4a/ 4d/	.	4ff#/ 4a/ 4d/	.
=98	=98	=98	=98	=98	=98	=98	=98	=98	=98
2ryy	.	2ryy	.	4d\	.	4ff#/ 4a/ 4d/	.	4ff#/ 4a/ 4d/	.
.	.	.	.	4r;	.	4r;	.	4r;	.
==	==	==	==	==	==	==	==	==	==
*-	*-	*-	*-	*-	*-	*-	*-	*-	*-
!!!system-decoration: [g1]s3[s4,s5]
!!!RDF**kern: > = above
!!!RDF**kern: | = vertical stroke
!!!RDF**dynam: p = "p."
!!!RDF**dynam: f = "f."
!!!RDF**dynam: rfz = "rinfn."
!!!ENC: Marta Lawrence
!!!END: 2021-03-29
!!!ENC: Tomasz Grochalski
!!!END: 2021-03-17
